X: 3465
T: Betty Likens
R: reel
M: 4/4
K: Adorian
|:z|"Am" edef "G" gfgf|"Am" edeg a2 a2|"Am" edef "G" gfgf|"Em" ed B2 "Am" A3:|
|:z|"Am" A2 Ac "G" BA G2|"Am" A2 AB c2 e2|"Am" edef "G" gfgf|"Am" edBA "G" G2 E2|
"Am" A2 Ac "G" BA G2|"Am" A2 AB c2 e2|"Am" edef "G" gfgf|"Em" ed B2 "Am" A3:|

